16x16/panel/zeal-panel.svg

<svg height="16" width="16" xmlns="http://www.w3.org/2000/svg"><g fill="#bebebe"><path d="m2.759 1c-.42 0-.759.312-.759.7v12.6c0 .388.338.7.759.7h2.241v-14z" opacity=".3"/><path d="m5 1v14h8.25c.416 0 .75-.314.75-.701v-12.598c0-.388-.334-.701-.75-.701h-5.258zm2.5 3h4a.5.5 0 0 1 .416.777l-3.482 6.223h3.066c.676-.01.676 1.01 0 1h-4a.5.5 0 0 1 -.416-.777l3.482-6.223h-3.066c-.676.01-.676-1.01 0-1z"/></g></svg>

<svg xmlns="http://www.w3.org/2000/svg" width="16" height="16"><defs><style id="current-color-scheme" type="text/css">.ColorScheme-Text{color:#bebebe}</style></defs><path class="ColorScheme-Text" d="M2.759 1C2.339 1 2 1.312 2 1.7v12.6c0 .388.338.7.759.7H5V1z" opacity=".3" fill="currentColor"/><path class="ColorScheme-Text" d="M5 1v14h8.25c.416 0 .75-.314.75-.701V1.701c0-.388-.334-.701-.75-.701H7.992zm2.5 3h4a.5.5 0 0 1 .416.777L8.434 11H11.5c.676-.01.676 1.01 0 1h-4a.5.5 0 0 1-.416-.777L10.566 5H7.5c-.676.01-.676-1.01 0-1z" fill="currentColor"/></svg>
